docs/public/img/adapters/mikro-orm.svg

<svg width="103" height="132" viewBox="0 0 103 132" fill="none" xmlns="http://www.w3.org/2000/svg">
<path d="M99.8661 53.8917C97.2127 57.826 93.6688 61.4451 89.2852 64.6053C88.1136 65.4491 86.8931 66.2429 85.6367 66.9999C85.0504 67.3499 84.4599 67.6885 83.8652 68.0156C83.2579 68.3482 82.6472 68.6708 82.0331 68.9833C73.0594 73.5224 62.4123 75.9777 51.2546 75.9777C40.0929 75.9777 29.4491 73.5224 20.4738 68.9833C19.859 68.6712 19.2476 68.3486 18.6398 68.0156C18.0455 67.688 17.4551 67.3494 16.8688 66.9999C15.6138 66.2429 14.3935 65.4491 13.2238 64.6053C8.8362 61.4451 5.29068 57.8263 2.64103 53.8917C0.936206 57.491 0 61.3276 0 65.3229C0 70.0379 1.30211 74.5465 3.64132 78.6788C3.93761 79.1961 4.24459 79.7038 4.56192 80.2013C4.86797 80.6738 5.18299 81.1372 5.50673 81.591C13.9647 93.3659 31.2882 101.461 51.2544 101.461C71.2171 101.461 88.5406 93.3659 97.0002 81.591C97.3242 81.1381 97.6387 80.6748 97.9433 80.2013C98.2611 79.7058 98.5673 79.1987 98.8613 78.6808C101.204 74.5462 102.506 70.0423 102.506 65.3226C102.506 61.3276 101.572 57.489 99.8661 53.8917Z" fill="#166788"/>
<path d="M99.8661 84C97.2127 87.9343 93.6688 91.5533 89.2852 94.7136C88.1136 95.5574 86.8931 96.3512 85.6367 97.1081C85.0504 97.4582 84.4599 97.7968 83.8652 98.1238C83.2579 98.4565 82.6472 98.7791 82.0331 99.0916C73.0594 103.631 62.4123 106.086 51.2546 106.086C40.0929 106.086 29.4491 103.631 20.4738 99.0916C19.859 98.7795 19.2476 98.4569 18.6398 98.1238C18.0455 97.7963 17.4551 97.4577 16.8688 97.1081C15.6138 96.3512 14.3935 95.5574 13.2238 94.7136C8.8362 91.5533 5.29068 87.9346 2.64103 84C0.936206 87.5993 0 91.4359 0 95.4312C0 100.146 1.30211 104.655 3.64132 108.787C3.93761 109.304 4.24459 109.812 4.56192 110.31C4.86797 110.782 5.18299 111.245 5.50673 111.699C13.9647 123.474 31.2882 131.569 51.2544 131.569C71.2171 131.569 88.5406 123.474 97.0002 111.699C97.3242 111.246 97.6387 110.783 97.9433 110.31C98.2611 109.814 98.5673 109.307 98.8613 108.789C101.204 104.655 102.506 100.151 102.506 95.4309C102.506 91.4359 101.572 87.5973 99.8661 84Z" fill="#166788"/>
<path d="M51.2544 0C22.9925 0 0 16.2137 0 36.1404C0 40.1334 0.935973 43.9743 2.64103 47.5672C2.90721 48.1297 3.18914 48.6803 3.48633 49.218C3.77264 49.7316 4.06904 50.2363 4.37524 50.7318C7.9436 56.4084 13.5181 61.3212 20.4736 65.0167C21.1367 65.3705 21.805 65.7091 22.4781 66.0324C23.1828 66.369 23.8918 66.6916 24.6048 67.0001C32.3759 70.3473 41.4997 72.2807 51.2544 72.2807C61.0053 72.2807 70.131 70.3473 77.9021 67.0001C78.6149 66.6911 79.3237 66.3685 80.0286 66.0324C80.7015 65.7087 81.3698 65.37 82.0331 65.0167C88.9871 61.3215 94.5616 56.4084 98.1281 50.7318C98.4378 50.2385 98.7355 49.7337 99.0208 49.218C99.3174 48.6805 99.5994 48.1307 99.8663 47.5695C101.572 43.9743 102.507 40.1337 102.507 36.1404C102.506 16.2137 79.5144 0 51.2544 0ZM77.9667 42.4192C77.82 42.7288 77.6648 43.032 77.5013 43.3282C77.3453 43.6114 77.1823 43.8884 77.0125 44.159C75.0516 47.2756 71.9871 49.9766 68.17 52.006C67.8043 52.2005 67.4358 52.3868 67.0646 52.5649C66.6782 52.7507 66.2895 52.929 65.8986 53.0999C61.6281 54.9356 56.6126 56.0013 51.2544 56.0013C45.8959 56.0013 40.8804 54.9356 36.6099 53.0999C36.2179 52.9288 35.8279 52.7504 35.4402 52.5649C35.0707 52.3873 34.7039 52.2009 34.3401 52.006C30.5191 49.9766 27.4562 47.2756 25.4937 44.159C25.3254 43.8872 25.1626 43.6101 25.0054 43.3282C24.8423 43.0321 24.6877 42.729 24.5418 42.4192C23.604 40.4422 23.088 38.3369 23.088 36.1404C23.088 25.1898 35.7226 16.2791 51.2541 16.2791C66.7857 16.2791 79.4186 25.1898 79.4186 36.1404C79.4186 38.3369 78.904 40.4422 77.9667 42.4192Z" fill="#1A1A1A"/>
</svg>

<svg xmlns="http://www.w3.org/2000/svg" fill="none" viewBox="0 0 103 132"><path fill="#166788" d="M99.87 53.9a42.87 42.87 0 0 1-10.58 10.7 53.33 53.33 0 0 1-7.26 4.38c-8.97 4.54-19.62 7-30.78 7s-21.8-2.46-30.78-7a65.9 65.9 0 0 1-3.6-1.98 53.13 53.13 0 0 1-3.65-2.4A42.74 42.74 0 0 1 2.64 53.9 26.54 26.54 0 0 0 0 65.31c0 4.72 1.3 9.23 3.64 13.36a37.36 37.36 0 0 0 1.87 2.91c8.45 11.78 25.78 19.87 45.74 19.87 19.97 0 37.3-8.1 45.75-19.87a34.05 34.05 0 0 0 1.86-2.9 26.93 26.93 0 0 0 3.65-13.37c0-4-.94-7.83-2.64-11.43Z"/><path fill="#166788" d="M99.87 84a42.87 42.87 0 0 1-10.58 10.71 53.29 53.29 0 0 1-7.26 4.38c-8.97 4.54-19.62 7-30.78 7s-21.8-2.46-30.78-7a65.64 65.64 0 0 1-3.6-1.98 53.1 53.1 0 0 1-3.65-2.4A42.74 42.74 0 0 1 2.64 84 26.54 26.54 0 0 0 0 95.43c0 4.72 1.3 9.22 3.64 13.36a37.93 37.93 0 0 0 1.87 2.9c8.45 11.78 25.78 19.88 45.74 19.88 19.97 0 37.3-8.1 45.75-19.87a34.44 34.44 0 0 0 1.86-2.91 26.92 26.92 0 0 0 3.65-13.36c0-4-.94-7.83-2.64-11.43Z"/><path fill="#1A1A1A" d="M51.25 0C23 0 0 16.21 0 36.14a26.5 26.5 0 0 0 3.49 13.08c.28.51.58 1.02.89 1.51 3.56 5.68 9.14 10.6 16.1 14.29A53.06 53.06 0 0 0 24.6 67a67.66 67.66 0 0 0 26.65 5.28A67.6 67.6 0 0 0 77.9 67a65.13 65.13 0 0 0 4.13-1.98c6.96-3.7 12.53-8.61 16.1-14.29a31.78 31.78 0 0 0 1.74-3.16c1.7-3.6 2.64-7.44 2.64-11.43C102.5 16.21 79.5 0 51.25 0Zm26.72 42.42a16.51 16.51 0 0 1-.96 1.74C75.05 47.28 72 49.98 68.17 52a29.88 29.88 0 0 1-2.27 1.09A37.25 37.25 0 0 1 51.25 56a37.25 37.25 0 0 1-15.81-3.44 28.2 28.2 0 0 1-1.1-.55c-3.82-2.03-6.88-4.73-8.85-7.85a21.08 21.08 0 0 1-.95-1.74 14.56 14.56 0 0 1-1.45-6.28c0-10.95 12.63-19.86 28.16-19.86 15.54 0 28.17 8.91 28.17 19.86 0 2.2-.52 4.3-1.45 6.28Z"/></svg>
